!!!!SEGMENT: pl-sa--l-1643--055_anonim--ecce-dominus-veniet-et-omnes-sancti-ejus.krn
!!!cenid: 16xx:1413
!!!COM: Anonim
!!!COM-rismid: pe30004985
!!!CDT:
!!!CNT:
!!!OTL: Ecce Dominus veniet, et omnes sancti ejus
!!!PDT:
!!!AGN: Sacred
!!!SMS-siglum: PL-SA
!!!SMS-shelfmark: L 1643
!!!SMS-shelfwork: 055 W
!!!SMS-variant:
!!!SMS-altvar:
!!!NIFC-rismid: 1001064066
!!!URL-scan: http://repozytorium.nifc.pl/skany/pl-sa-nut--l1643
!!!ONB-nifc: UWAGA: 8 ksiąg. Primi chori: 1mus Cantus (89), C 2dus (88), C 3tius (85-86), Bassus (83-84); Secondi chori: Primus Cantus (82), C 2dus (85), Altus (82-83), Bassus (83-84). UWAGA: Nie dodawać pustych linii, chyba że w rękopisie pojawiają się dodatkowe oznaczenia dotyczące pełnej obsady (a 4, a 8 itp.)
**kern	**text	**kern	**text	**kern	**text	**kern	**text	**kern	**text	**kern	**text	**kern	**text	**kern	**text
*group2	*	*group2	*	*group2	*	*group2	*	*group1	*	*group1	*	*group1	*	*group1	*
*part8	*part8	*part7	*part7	*part6	*part6	*part5	*part5	*part4	*part4	*part3	*part3	*part2	*part2	*part1	*part1
*staff8	*staff8	*staff7	*staff7	*staff6	*staff6	*staff5	*staff5	*staff4	*staff4	*staff3	*staff3	*staff2	*staff2	*staff1	*staff1
*I"Baſsus 2di Chori.	*	*I"Altus secundi Chori.	*	*I"Cantus 2dus Secundi Chori.	*	*I"Primus Cantus 2di Chori	*	*I"Bassus Primi Chori.	*	*I"Cantus 3tius Primi Chori	*	*I"Cantus 2dus Primi Chori.	*	*I"Im(us) Cantus Primi Chori	*
*I'[Coro 2 B]	*	*I'[Coro 2 A]	*	*I'[Coro 2 C 2]	*	*I'[Coro 2 C 1]	*	*I'[Coro 1 B]	*	*I'[Coro 1 C 3]	*	*I'[Coro 1 C 2]	*	*I'[Coro 1 C 1]	*
*clefC3	*	*clefC2	*	*clefC1	*	*clefG2	*	*clefC3	*	*clefC2	*	*clefC1	*	*clefG2	*
*k[]	*	*k[]	*	*k[]	*	*k[]	*	*k[]	*	*k[]	*	*k[]	*	*k[]	*
*M2/2	*	*M2/2	*	*M2/2	*	*M2/2	*	*M2/2	*	*M2/2	*	*M2/2	*	*M2/2	*
*met(C|)	*	*met(C|)	*	*met(C|)	*	*met(C|)	*	*met(C|)	*	*met(C|)	*	*met(C|)	*	*met(C|)	*
=1-	=1-	=1-	=1-	=1-	=1-	=1-	=1-	=1-	=1-	=1-	=1-	=1-	=1-	=1-	=1-
!	!	!	!	!	!	!	!	!	!	!	!	!	!	!LO:TX:t=P:problem:czerwony inicjał	!
00r	.	00r	.	00r	.	0r	.	1r	.	1r	.	1r	.	1dd	Ec-
=2-	=2-	=2-	=2-	=2-	=2-	=2-	=2-	=2-	=2-	=2-	=2-	=2-	=2-	=2-	=2-
.	.	.	.	.	.	.	.	2r	.	2r	.	2r	.	1b	-ce
!	!	!	!	!	!	!	!	!LO:TX:t=P:problem:czerwony inicjał	!	!LO:TX:t=P:problem:czerwony inicjał	!	!LO:TX:t=P:problem:czerwony inicjał	!	!	!
.	.	.	.	.	.	.	.	2g\	Ec-	2g\	Ec-	2dd\	Ec-	.	.
=3-	=3-	=3-	=3-	=3-	=3-	=3-	=3-	=3-	=3-	=3-	=3-	=3-	=3-	=3-	=3-
!	!	!	!	!	!	!	!	!LO:TX:b:t=P:problem:# below	!	!	!	!	!	!	!
.	.	.	.	.	.	1r	.	2f#X\	-ce	2g\	-ce	2a\	-ce	2.dd\	Do-
.	.	.	.	.	.	.	.	4g\	Do-	4g\	Do-	4b\	Do-	.	.
.	.	.	.	.	.	.	.	4g\	-mi-	4g\	-mi-	4b\	-mi-	4dd\	-mi-
=4-	=4-	=4-	=4-	=4-	=4-	=4-	=4-	=4-	=4-	=4-	=4-	=4-	=4-	=4-	=4-
!	!	!	!	!	!	!LO:TX:t=P:problem:czerwony inicjał	!	!	!	!	!	!	!	!	!
.	.	.	.	.	.	1dd	Ec-	2d\	-nus	2a\	-nus	2a\	-nus	2dd\	-nus
.	.	.	.	.	.	.	.	2r	.	2r	.	2r	.	2r	.
=5-	=5-	=5-	=5-	=5-	=5-	=5-	=5-	=5-	=5-	=5-	=5-	=5-	=5-	=5-	=5-
!LO:TX:t=P:problem:czerwony inicjał	!	!	!	!LO:TX:t=P:problem:czerwony inicjał	!	!	!	!	!	!	!	!	!	!	!
1g	Ec-	2r	.	1dd	Ec-	1b	ce	0r	.	0r	.	0r	.	0r	.
!	!	!LO:TX:t=P:problem:czerwony inicjał	!	!	!	!	!	!	!	!	!	!	!	!	!
.	.	2g\	Ec-	.	.	.	.	.	.	.	.	.	.	.	.
=6-	=6-	=6-	=6-	=6-	=6-	=6-	=6-	=6-	=6-	=6-	=6-	=6-	=6-	=6-	=6-
!LO:TX:b:t=P:problem:# below	!	!	!	!	!	!	!	!	!	!	!	!	!	!	!
2f#X\	-ce	2a\	-ce	2a\	-ce	2.dd\	Do-	.	.	.	.	.	.	.	.
4g\	Do-	4g\	Do-	4b\	Do-	.	.	.	.	.	.	.	.	.	.
4g\	-mi-	4g\	-mi-	4b\	-mi-	4dd\	-mi-	.	.	.	.	.	.	.	.
=7-	=7-	=7-	=7-	=7-	=7-	=7-	=7-	=7-	=7-	=7-	=7-	=7-	=7-	=7-	=7-
!	!	!LO:TX:b:t=P:problem:# below	!	!	!	!	!	!	!	!	!	!	!	!	!
2d\	-nus,	2f#X\	-nus	2a\	-nus	2dd\	-nus	2r	.	2r	.	2r	.	2r	.
2r	.	2r	.	2r	.	2r	.	1g\	Ec-	1g\	Ec-	1b\	Ec-	1dd\	Ec-
=8-	=8-	=8-	=8-	=8-	=8-	=8-	=8-	=8-	=8-	=8-	=8-	=8-	=8-	=8-	=8-
0r	.	0r	.	0r	.	0r	.	.	.	.	.	.	.	.	.
.	.	.	.	.	.	.	.	2g\	-ce	2g\	-ce	2b\	-ce	2b/	-ce
=9-	=9-	=9-	=9-	=9-	=9-	=9-	=9-	=9-	=9-	=9-	=9-	=9-	=9-	=9-	=9-
!	!	!	!	!	!	!	!	!	!	!LO:TX:b:t=P:problem:# below	!	!	!	!	!
.	.	.	.	.	.	.	.	2.d\	Do-	2.f#X\	Do-	2.a\	Do-	2.dd\	Do-
.	.	.	.	.	.	.	.	4d\	-mi-	4f#\	-mi-	4a\	-mi-	4dd\	-mi-
=10-	=10-	=10-	=10-	=10-	=10-	=10-	=10-	=10-	=10-	=10-	=10-	=10-	=10-	=10-	=10-
1r	.	1r	.	1r	.	2r	.	1g	-nus	1g	-nus	1b	-nus	1dd	-nus
.	.	.	.	.	.	1dd\	Ec-	.	.	.	.	.	.	.	.
=11-	=11-	=11-	=11-	=11-	=11-	=11-	=11-	=11-	=11-	=11-	=11-	=11-	=11-	=11-	=11-
2r	.	2r	.	2r	.	.	.	0r	.	0r	.	0r	.	0r	.
2g\	Ec-	2g\	Ec-	2b\	ec-	2b/	-ce	.	.	.	.	.	.	.	.
=12-	=12-	=12-	=12-	=12-	=12-	=12-	=12-	=12-	=12-	=12-	=12-	=12-	=12-	=12-	=12-
2fny\	-ce	2a\	-ce	2a\	-ce	2.dd\	Do-	.	.	.	.	.	.	.	.
4g\	Do-	4g\	Do-	4b\	Do-	.	.	.	.	.	.	.	.	.	.
4g\	-mi-	4g\	-mi-	4b\	-mi-	4dd\	-mi-	.	.	.	.	.	.	.	.
=13-	=13-	=13-	=13-	=13-	=13-	=13-	=13-	=13-	=13-	=13-	=13-	=13-	=13-	=13-	=13-
!	!	!	!	!LO:TX:t=P:problem:dźwięk niewidoczny	!	!	!	!	!	!	!	!	!	!	!
0d	-nus	0fny	-nus	1cc	-nus	0a	-nus	1.d	Do-	1.fny	Do-	1.a	Do-	1.dd	Do-
=14-	=14-	=14-	=14-	=14-	=14-	=14-	=14-	=14-	=14-	=14-	=14-	=14-	=14-	=14-	=14-
*	*	*	*	*lig	*	*	*	*	*	*	*	*	*	*	*
.	.	.	.	1a	Ve-	.	.	.	.	.	.	.	.	.	.
.	.	.	.	.	.	.	.	2d\	-mi-	2f\	-mi-	2dd\	-mi-	2dd\	-mi-
!	!	!	!	!	!	!	!	!LO:SIC:v:t=custos G	!	!	!	!	!	!	!
!	!	!	!	!	!	!	!	!LO:LB:g=original	!	!	!	!	!	!	!
=15-	=15-	=15-	=15-	=15-	=15-	=15-	=15-	=15-	=15-	=15-	=15-	=15-	=15-	=15-	=15-
*	*	*	*	*col	*	*	*	*	*	*	*	*	*	*	*
2.g\	Ve-	1g	.	2.b\	.	2.b/	Ve-	4G/	-nus	1g	-nus	1dd	-nus	4ee\	-nus
.	.	.	.	.	.	.	.	4A/	.	.	.	.	.	4ff\	.
.	.	.	.	.	.	.	.	4B/	.	.	.	.	.	2.gg\	Ve-
*	*	*	*	*Xlig	*	*	*	*	*	*	*	*	*	*	*
*	*	*	*	*Xcol	*	*	*	*	*	*	*	*	*	*	*
8f\L	.	.	.	8cc\L	.	8a/L	.	4c/	.	.	.	.	.	.	.
8e\J	.	.	.	8dd\J	.	8g/J	.	.	.	.	.	.	.	.	.
!	!	!	!	!	!	!	!	!	!	!	!	!	!	!LO:SIC:v:t=custos ff	!
!	!	!	!	!	!	!	!	!	!	!	!	!	!	!LO:LB:g=original	!
=16-	=16-	=16-	=16-	=16-	=16-	=16-	=16-	=16-	=16-	=16-	=16-	=16-	=16-	=16-	=16-
2.d\	.	4g\	Ve-	2.a\	.	2.a/	.	2.d\	Ve-	2.d/	Ve-	2.dd\	Ve-	.	.
.	.	8f\L	.	.	.	.	.	.	.	.	.	.	.	8ff\L	.
.	.	8e\J	.	.	.	.	.	.	.	.	.	.	.	8ee\J	.
!	!	!	!	!	!	!	!	!	!	!	!	!	!	!LO:SIC:v:t=custos ff#	!
!	!	!	!	!	!	!	!	!	!	!	!	!	!	!LO:LB:g=original	!
!	!	!LO:TX:b:t=P:problem:# below	!	!	!	!	!	!	!	!	!	!	!	!LO:TX:b:t=P:problem:# below	!
.	.	2f#X\	-ni-	.	.	.	.	.	.	.	.	.	.	2ff#X\	-ni-
4d\	-ni-	.	.	4a\	-ni-	4a/	-ni-	4d\	-ni-	4d/	-ni-	4dd\	-ni-	.	.
!	!	!	!	!	!	!	!	!	!	!LO:SIC:v:t=custos d	!	!	!	!	!
!	!	!	!	!	!	!	!	!	!	!LO:LB:g=original	!	!	!	!	!
=17-	=17-	=17-	=17-	=17-	=17-	=17-	=17-	=17-	=17-	=17-	=17-	=17-	=17-	=17-	=17-
1g	-et.	1g	-et	1b	-et	1g	-et	1G	-et,	1d	-et	1dd	-et	1gg	-et
!LO:SIC:v:t=custos g	!	!LO:SIC:v:t=custos g	!	!LO:SIC:v:t=custos b	!	!LO:SIC:v:t=custos dd	!	!	!	!	!	!	!	!	!
!LO:PB:g=original	!	!LO:LB:g=original	!	!LO:LB:g=original	!	!	!	!	!	!	!	!	!	!	!
=18-	=18-	=18-	=18-	=18-	=18-	=18-	=18-	=18-	=18-	=18-	=18-	=18-	=18-	=18-	=18-
*M3/2	*	*M3/2	*	*M3/2	*	*M3/2	*	*M3/2	*	*M3/2	*	*M3/2	*	*M3/2	*
!LO:TX:t=P:problem:czerwony inicjał	!	!LO:TX:t=P:problem:czerwony inicjał	!	!LO:TX:t=P:problem:czerwony inicjał	!	!LO:TX:t=P:problem:czerwony inicjał	!	!	!	!	!	!	!	!	!
2g\	Et	2g\	Et	2b\	Et	2dd\	Et	1r	.	1r	.	1r	.	1r	.
2g\	om-	2g\	om-	2b\	om-	2dd\	om-	.	.	.	.	.	.	.	.
!	!	!	!	!	!	!	!	!LO:TX:t=P:problem:czerwony inicjał	!	!LO:TX:t=P:problem:czerwony inicjał	!	!LO:TX:t=P:problem:czerwony inicjał	!	!LO:TX:t=P:problem:czerwony inicjał	!
2g\	-nes	2g\	-nes	2b\	-nes	2dd\	-nes	2c/	Et	2g\	Et	2cc\	Et	2ee\	Et
=19-	=19-	=19-	=19-	=19-	=19-	=19-	=19-	=19-	=19-	=19-	=19-	=19-	=19-	=19-	=19-
1c	san-	1g	san-	1cc	san-	1ee	ſan-	2c/	om-	2g\	om-	2cc\	om-	2ee\	om-
.	.	.	.	.	.	.	.	2c/	-nes	2g\	-nes	2cc\	-nes	2ee\	-nes
2c,>/	-cti,	2g\	-cti	2cc,>\	-cti,	2ee\	-cti	1F/	ſan-	1a\	ſan-	1cc\	ſan-	1ffny\	ſan-
=20-	=20-	=20-	=20-	=20-	=20-	=20-	=20-	=20-	=20-	=20-	=20-	=20-	=20-	=20-	=20-
2f\	et	2a\	Et	2cc\	Et	2cc\	et	.	.	.	.	.	.	.	.
2f\	om-	2a\	om-	2cc\	om-	2cc\	om-	2F/	-cti	2a\	-cti,	2cc\	-cti	2ff,>\	-cti,
*	*	*	*	*	*	*	*	*	*	*	*	*	*ij	*	*
2f\	-nes	2a\	-nes	2cc\	-nes	2cc\	-nes	2c/	Et	2g\	Et	2ee\	Et	2gg\	et
=21-	=21-	=21-	=21-	=21-	=21-	=21-	=21-	=21-	=21-	=21-	=21-	=21-	=21-	=21-	=21-
1c	san-	1g	ſan-	1cc	san-	1ee	ſan-	2c/	om-	2g\	om-	2ee\	om-	2gg\	om-
.	.	.	.	.	.	.	.	2c/	-nes	2g\	-nes	2ee\	-nes	2gg\	-nes
2c/	-cti	2g\	-cti	2cc\	-cti	2ee\	-cti	1c\	ſan-	1g\	ſan-	1ee\	ſan-	1ee\	ſan-
=22-	=22-	=22-	=22-	=22-	=22-	=22-	=22-	=22-	=22-	=22-	=22-	=22-	=22-	=22-	=22-
1c	e-	1e	e-	1cc	e-	1cc	e-	.	.	.	.	.	.	.	.
.	.	.	.	.	.	.	.	2A/	-cti	2a\	-cti	2cc\	-cti	2ee\	-cti
*	*	*	*	*	*	*	*	*	*	*	*	*	*Xij	*	*
1.d\	-ius	1.a\	-ius	1.a\	-ius	1.a/	-ius	1d\	e-	1a\	e-	1dd\	e-	1dd\	e-
=23-	=23-	=23-	=23-	=23-	=23-	=23-	=23-	=23-	=23-	=23-	=23-	=23-	=23-	=23-	=23-
.	.	.	.	.	.	.	.	.	.	.	.	.	.	.	.
.	.	.	.	.	.	.	.	2d\	-ius	2a\	-ius	2dd\	-ius	2ff\	-ius
!	!	!	!	!	!	!	!	!LO:SIC:v:t=custos d	!	!	!	!	!	!	!
!	!	!	!	!	!	!	!	!LO:LB:g=original	!	!	!	!	!	!	!
2d\	cum	2g\	cum	2a\	cum	2dd\	cum	2d\	cum	2a\	cum	2a\	cum	2ff\	cum
=24-	=24-	=24-	=24-	=24-	=24-	=24-	=24-	=24-	=24-	=24-	=24-	=24-	=24-	=24-	=24-
!	!	!	!	!	!	!LO:TX:b:t=P:problem:# below	!	!	!	!	!	!	!	!	!
1a	e-	1a	e-	1a	e-	1cc#X	e-	1A	e-	1a	e-	1a	e-	1ee	e-
1d	-o	1a	-o.	1a	-o.	1dd	-o.	1d	-o.	1a	-o.	1a	-o.	1dd	-o.
=25-	=25-	=25-	=25-	=25-	=25-	=25-	=25-	=25-	=25-	=25-	=25-	=25-	=25-	=25-	=25-
*M2/2	*	*M2/2	*	*M2/2	*	*M2/2	*	*M2/2	*	*M2/2	*	*M2/2	*	*M2/2	*
*met(C|)	*	*met(C|)	*	*met(C|)	*	*met(C|)	*	*met(C|)	*	*met(C|)	*	*met(C|)	*	*met(C|)	*
00r	.	00r	.	00r	.	00r	.	1g	Ec-	1r	.	1r	.	1r	.
!	!	!	!	!	!	!	!	!	!	!	!	!LO:SIC:v:t=custos b	!	!LO:SIC:v:t=custos gg	!
!	!	!	!	!	!	!	!	!	!	!	!	!LO:LB:g=original	!	!LO:LB:g=original	!
=26-	=26-	=26-	=26-	=26-	=26-	=26-	=26-	=26-	=26-	=26-	=26-	=26-	=26-	=26-	=26-
.	.	.	.	.	.	.	.	1e	-ce	2g\	Ec-	2b\	Ec-	1gg	Ec-
.	.	.	.	.	.	.	.	.	.	2g\	-ce	2b\	-ce	.	.
!	!	!	!	!	!	!	!	!	!	!LO:SIC:v:t=custos g	!	!	!	!	!
!	!	!	!	!	!	!	!	!	!	!LO:LB:g=original	!	!	!	!	!
=27-	=27-	=27-	=27-	=27-	=27-	=27-	=27-	=27-	=27-	=27-	=27-	=27-	=27-	=27-	=27-
.	.	.	.	.	.	.	.	2.c/	Do-	2.g\	Do-	2.cc\	Do-	1ee	-ce
.	.	.	.	.	.	.	.	4c/	-mi-	4g\	-mi-	4cc\	-mi-	.	.
=28-	=28-	=28-	=28-	=28-	=28-	=28-	=28-	=28-	=28-	=28-	=28-	=28-	=28-	=28-	=28-
.	.	.	.	.	.	.	.	4G/	-nus	1g	-nus,	1b	-nus	2.gg\	Do-
.	.	.	.	.	.	.	.	4A/	.	.	.	.	.	.	.
.	.	.	.	.	.	.	.	4B/	.	.	.	.	.	.	.
.	.	.	.	.	.	.	.	4c/	.	.	.	.	.	4gg\	mi-
=29-	=29-	=29-	=29-	=29-	=29-	=29-	=29-	=29-	=29-	=29-	=29-	=29-	=29-	=29-	=29-
!	!	!	!	!	!	!	!	!	!	!LO:TX:b:t=P:problem:# below	!	!	!	!	!
00r	.	00r	.	00r	.	00r	.	2.d\	ve-	2.f#X\	ve-	2.a\	ve-	1dd	-nus
.	.	.	.	.	.	.	.	4d\	-ni-	4f#\	-ni-	4b\	-ni-	.	.
=30-	=30-	=30-	=30-	=30-	=30-	=30-	=30-	=30-	=30-	=30-	=30-	=30-	=30-	=30-	=30-
.	.	.	.	.	.	.	.	2c/	et	1g	et,	2cc\	-et	2.ee\	ve-
.	.	.	.	.	.	.	.	4c/	Ve-	.	.	2.cc\	we-	.	.
.	.	.	.	.	.	.	.	8B/L	.	.	.	.	.	8dd\L	.
.	.	.	.	.	.	.	.	8A/J	.	.	.	.	.	8cc\J	.
=31-	=31-	=31-	=31-	=31-	=31-	=31-	=31-	=31-	=31-	=31-	=31-	=31-	=31-	=31-	=31-
.	.	.	.	.	.	.	.	2.G/	.	2.g\	Ve-	.	.	2.dd\	.
.	.	.	.	.	.	.	.	.	.	.	.	8b\L	.	.	.
.	.	.	.	.	.	.	.	.	.	.	.	8a\J	.	.	.
.	.	.	.	.	.	.	.	.	.	.	.	2b\	-ni-	.	.
.	.	.	.	.	.	.	.	4G/	-ni-	4g\	-ni-	.	.	4dd\	-ni-
=32-	=32-	=32-	=32-	=32-	=32-	=32-	=32-	=32-	=32-	=32-	=32-	=32-	=32-	=32-	=32-
.	.	.	.	.	.	.	.	1c	-et,	1g	-et,	1cc	-et.	1cc	-et
!	!	!	!	!	!	!	!	!LO:SIC:v:t=custos c	!	!	!	!	!	!	!
!	!	!	!	!	!	!	!	!LO:PB:g=original	!	!	!	!	!	!	!
=33-	=33-	=33-	=33-	=33-	=33-	=33-	=33-	=33-	=33-	=33-	=33-	=33-	=33-	=33-	=33-
*M3/2	*	*M3/2	*	*M3/2	*	*M3/2	*	*M3/2	*	*M3/2	*	*M3/2	*	*M3/2	*
2g\	Et	2g\	Et	2b\	Et	2dd\	Et	1r	.	1r	.	1r	.	1r	.
2g\	om-	2g\	om-	2b\	om-	2dd\	om-	.	.	.	.	.	.	.	.
!	!	!	!	!	!	!	!	!	!	!	!	!	!	!LO:TX:t=P:problem:czerwony inicjał	!
2g\	-nes	2g\	-nes	2b\	-nes	2dd\	-nes	2c/	Et	2g\	Et	2cc\	Et	2ee\	Et
!LO:SIC:v:t=custos c	!	!	!	!LO:SIC:v:t=custos cc	!	!LO:SIC:v:t=custos ee	!	!	!	!	!	!	!	!	!
!LO:LB:g=original	!	!LO:PB:g=original	!	!LO:LB:g=original	!	!LO:LB:g=original	!	!	!	!	!	!	!	!	!
=34-	=34-	=34-	=34-	=34-	=34-	=34-	=34-	=34-	=34-	=34-	=34-	=34-	=34-	=34-	=34-
1c	san-	1g	ſan-	1cc	san-	1ee	san-	2c/	om-	2g\	om-	2cc\	om-	2ee\	om-
.	.	.	.	.	.	.	.	2c/	-nes	2g\	-nes	2cc\	-nes	2ee\	-nes
2c/	-cti	2g,>\	-cti,	2cc\	-cti	2ee\	-cti,	1F/	san-	1a\	ſan-	1cc\	ſan-	1ff\	ſan-
=35-	=35-	=35-	=35-	=35-	=35-	=35-	=35-	=35-	=35-	=35-	=35-	=35-	=35-	=35-	=35-
2f\	Et	2a\	Et	2cc\	Et	2ccny\	Et	.	.	.	.	.	.	.	.
2f\	om-	2a\	om-	2cc\	om-	2cc\	om-	2F/	-cti	2a\,>	-cti,	2cc\	-cti	2ff\	-cti
*	*	*	*	*	*	*	*	*	*	*	*ij	*	*	*	*
!	!	!	!	!	!	!	!	!	!	!	!	!LO:SIC:v:t=custos ee	!	!	!
!	!	!	!	!	!	!	!	!	!	!	!	!LO:LB:g=original	!	!	!
2f\	-nes	2a\	-nes	2cc\	-nes	2cc\	-nes	2c/	Et	2g\	Et	2ee\	Et	2gg\	et
=36-	=36-	=36-	=36-	=36-	=36-	=36-	=36-	=36-	=36-	=36-	=36-	=36-	=36-	=36-	=36-
1c	san-	1g	san-	1cc	san-	1ee	ſan-	2c/	om-	2g\	om-	2ee\	om-	2gg\	om-
.	.	.	.	.	.	.	.	2c/	-nes	2g\	-nes	2ee\	-nes	2gg\	-nes
2c/	-cti	2g\	-cti	2cc\	-cti	2ee\	-cti	1c\	san-	1g\	ſan-	1ee\	ſan-	1ee\	ſan-
=37-	=37-	=37-	=37-	=37-	=37-	=37-	=37-	=37-	=37-	=37-	=37-	=37-	=37-	=37-	=37-
1c	e-	1e	e-	1b	e-	1cc	e-	.	.	.	.	.	.	.	.
.	.	.	.	.	.	.	.	2A/	-cti	2a\	-cti	2cc\	-cti	2ee\	-cti
*	*	*	*	*	*	*	*	*	*	*	*Xij	*	*	*	*
!	!	!	!	!	!	!	!	!	!	!LO:SIC:v:t=custos a	!	!	!	!LO:SIC:v:t=custos dd	!
!	!	!	!	!	!	!	!	!	!	!LO:PB:g=original	!	!	!	!LO:LB:g=original	!
1.d\	-ius	1.a\	-ius	1.a\	-ius	1.a/	-ius	1d\	e-	1a\	e-	1dd\	e-	1dd\	e-
=38-	=38-	=38-	=38-	=38-	=38-	=38-	=38-	=38-	=38-	=38-	=38-	=38-	=38-	=38-	=38-
.	.	.	.	.	.	.	.	.	.	.	.	.	.	.	.
.	.	.	.	.	.	.	.	2d\	-ius	2a\	-ius	2dd\	-ius	2ff\	-ius
2d\,>	cum	2a\	cum	2a\	cum	2dd\	cum	2d\	cum	2a\	cum	2a\	cum	2ff\	cum
=39-	=39-	=39-	=39-	=39-	=39-	=39-	=39-	=39-	=39-	=39-	=39-	=39-	=39-	=39-	=39-
!	!	!	!	!	!	!LO:TX:b:t=P:problem:# below	!	!	!	!	!	!	!	!	!
1a	e-	1a	e-	1a	e-	1cc#X	e-	1A	e-	1a	e-	1a	e-	1ee	e-
1d	-o.	1a	-o.	1a	-o.	1dd	-o,	1d	-o.	1a	-o	1a	-o	1dd	-o.
=40-	=40-	=40-	=40-	=40-	=40-	=40-	=40-	=40-	=40-	=40-	=40-	=40-	=40-	=40-	=40-
*M2/2	*	*M2/2	*	*M2/2	*	*M2/2	*	*M2/2	*	*M2/2	*	*M2/2	*	*M2/2	*
*met(C|)	*	*met(C|)	*	*met(C|)	*	*met(C|)	*	*met(C|)	*	*met(C|)	*	*met(C|)	*	*met(C|)	*
0r	.	0r	.	0r	.	0r	.	1r	.	1r	.	1r	.	1b	Et
=41-	=41-	=41-	=41-	=41-	=41-	=41-	=41-	=41-	=41-	=41-	=41-	=41-	=41-	=41-	=41-
.	.	.	.	.	.	.	.	2r	.	2r	.	2r	.	1dd	e-
.	.	.	.	.	.	.	.	2G/	et	2g\	Et	2b\	Et	.	.
!	!	!	!	!	!	!	!	!LO:SIC:v:t=custos d	!	!	!	!	!	!	!
!	!	!	!	!	!	!	!	!LO:LB:g=original	!	!	!	!	!	!	!
=42-	=42-	=42-	=42-	=42-	=42-	=42-	=42-	=42-	=42-	=42-	=42-	=42-	=42-	=42-	=42-
!	!	!	!	!	!	!	!	!	!	!LO:TX:b:t=P:problem:# below	!	!	!	!	!
2r	.	2r	.	2r	.	2r	.	2d\	e-	2f#X\	e-	2a\	e-	1dd	-rit,
2G/	Et	2g\	Et	2b\	Et	2b/	Et	2G/	-rit	2g\	-rit	2b\	-rit,	.	.
=43-	=43-	=43-	=43-	=43-	=43-	=43-	=43-	=43-	=43-	=43-	=43-	=43-	=43-	=43-	=43-
!	!	!LO:TX:b:t=P:problem:# below	!	!	!	!	!	!	!	!	!	!	!	!	!
1d	e-	1f#X	e-	1a	e-	1dd	e-	1r	.	1r	.	1r	.	1r	.
=44-	=44-	=44-	=44-	=44-	=44-	=44-	=44-	=44-	=44-	=44-	=44-	=44-	=44-	=44-	=44-
!	!	!	!	!LO:TX:t=P:problem:błędny rytm	!	!	!	!	!	!	!	!	!	!	!
!	!	!	!	!LO:N:vis=1	!	!	!	!	!	!	!	!	!	!	!
2G/	-rit	2g\	-rit	2b\	-rit	2dd\	-rit	2r	.	2r	.	2r	.	2r	.
2r	.	2r	.	2r	.	2r	.	2G/	et	2g\	et	2b\	et	2b/	et
=45-	=45-	=45-	=45-	=45-	=45-	=45-	=45-	=45-	=45-	=45-	=45-	=45-	=45-	=45-	=45-
!	!	!	!	!	!	!	!	!	!	!LO:TX:b:t=P:problem:# below	!	!	!	!	!
1r	.	1r	.	1r	.	1r	.	1d	e-	1f#X	e-	1a	e-	1dd	e-
=46-	=46-	=46-	=46-	=46-	=46-	=46-	=46-	=46-	=46-	=46-	=46-	=46-	=46-	=46-	=46-
2r	.	2r	.	2r	.	2r	.	2G/	-rit	2g\	-rit	2b\	-rit	1.dd	-rit
!	!	!LO:SIC:v:t=custos g	!	!	!	!	!	!	!	!	!	!	!	!	!
!	!	!LO:LB:g=original	!	!	!	!	!	!	!	!	!	!	!	!	!
2g\	et	2g\	et	2dd\	et	2dd\	in	2G/	in	2g\	in	2b\	in	.	.
!LO:SIC:v:t=custos c	!	!	!	!	!	!	!	!	!	!	!	!	!	!	!
!LO:LB:g=original	!	!	!	!	!	!	!	!	!	!	!	!	!	!	!
=47-	=47-	=47-	=47-	=47-	=47-	=47-	=47-	=47-	=47-	=47-	=47-	=47-	=47-	=47-	=47-
!	!	!	!	!LO:SIC:l:s= e-	!	!	!	!	!	!	!	!	!	!	!
0c	e-	0fny	-e-	0cc	erit-	1ee	di-	0c	di-	0g	di-	0cc	di-	.	.
.	.	.	.	.	.	.	.	.	.	.	.	.	.	2gg\	in
=48-	=48-	=48-	=48-	=48-	=48-	=48-	=48-	=48-	=48-	=48-	=48-	=48-	=48-	=48-	=48-
.	.	.	.	.	.	1ccny	-e	.	.	.	.	.	.	2.ee\	di-
.	.	.	.	.	.	.	.	.	.	.	.	.	.	4ff\	.
!	!	!	!	!LO:SIC:v:t=custos b	!	!LO:SIC:v:t=custos dd	!	!	!	!	!	!	!	!	!
!	!	!	!	!LO:LB:g=original	!	!LO:LB:g=original	!	!	!	!	!	!	!	!	!
=49-	=49-	=49-	=49-	=49-	=49-	=49-	=49-	=49-	=49-	=49-	=49-	=49-	=49-	=49-	=49-
1g	-rit	1g	-rit	1b	-rit	1dd	il-	1G	-e	1g	-e	1dd	-e	1gg	-e
!	!	!	!	!	!	!	!	!	!	!LO:SIC:v:t=custos g	!	!LO:SIC:v:t=custos b	!	!	!
!	!	!	!	!	!	!	!	!	!	!LO:LB:g=original	!	!LO:LB:g=original	!	!	!
=50-	=50-	=50-	=50-	=50-	=50-	=50-	=50-	=50-	=50-	=50-	=50-	=50-	=50-	=50-	=50-
1g	in	1d	in	1dd	in	1b	-la	1G	il-	1g	il-	1b	il-	2dd\	il-
.	.	.	.	.	.	.	.	.	.	.	.	.	.	2dd\	-la
!	!	!	!	!	!	!	!	!	!	!	!	!	!	!LO:SIC:v:t=custos ee	!
!	!	!	!	!	!	!	!	!	!	!	!	!	!	!LO:LB:g=original	!
=51-	=51-	=51-	=51-	=51-	=51-	=51-	=51-	=51-	=51-	=51-	=51-	=51-	=51-	=51-	=51-
2c/	di-	2e/	di-	2b\	di-	1g	lux	2c/	-la	2e/	-la	2cc\	-la	2ee\	lux
2g\	-e	2f\	-e	2dd\	-e	.	.	2G/	lux	2g\	lux	2b\	lux	2dd\	.
=52-	=52-	=52-	=52-	=52-	=52-	=52-	=52-	=52-	=52-	=52-	=52-	=52-	=52-	=52-	=52-
1d	il-	1d	il-	1dd	il-	1a	mag-	1d	mag-	1a	mag-	1a	mag-	1dd	mag-
=53-	=53-	=53-	=53-	=53-	=53-	=53-	=53-	=53-	=53-	=53-	=53-	=53-	=53-	=53-	=53-
!	!	!	!	!	!	!	!	!	!	!LO:TX:b:t=P:problem:# below	!	!	!	!	!
1d	-la.	1d	-la	1a	-la	1a	-na	1d	-na	1f#X	-na	1a	-na	1dd	-na
=54-	=54-	=54-	=54-	=54-	=54-	=54-	=54-	=54-	=54-	=54-	=54-	=54-	=54-	=54-	=54-
*M3/2	*	*M3/2	*	*M3/2	*	*M3/2	*	*M3/2	*	*M3/2	*	*M3/2	*	*M3/2	*
!	!	!	!	!	!	!LO:TX:t=P:problem:fragment pominiety w źródle	!	!	!	!	!	!	!	!LO:TX:t=P:problem:czerwony inicjał	!
00.r	.	00.r	.	00.r	.	1.ryy	.	1g	Al-	1b	Al-	1dd	Al-	1gg	Al-
.	.	.	.	.	.	.	.	2e\	-le-	2b\	-l(e-	2ee\	-le-	2gg\	-le-
=55-	=55-	=55-	=55-	=55-	=55-	=55-	=55-	=55-	=55-	=55-	=55-	=55-	=55-	=55-	=55-
.	.	.	.	.	.	1.ryy	.	1fny	-lu-	1a	-lu-	1cc	-lu-	1ff	-lu-
.	.	.	.	.	.	.	.	2d\	-ia	2a\	-i)a.	2dd\	-ia.	2ff\	-ia
!	!	!	!	!	!	!	!	!LO:SIC:v:t=custos e	!	!	!	!	!	!	!
!	!	!	!	!	!	!	!	!LO:LB:g=original	!	!	!	!	!	!	!
=56-	=56-	=56-	=56-	=56-	=56-	=56-	=56-	=56-	=56-	=56-	=56-	=56-	=56-	=56-	=56-
.	.	.	.	.	.	1.ryy	.	1e	Al-	1g	Al-	1b	Al-	1ee	Al-
.	.	.	.	.	.	.	.	2c/	-l(e-	2g\	-l(e-	2cc\	-l(e-	2ee\	-le-
=57-	=57-	=57-	=57-	=57-	=57-	=57-	=57-	=57-	=57-	=57-	=57-	=57-	=57-	=57-	=57-
.	.	.	.	.	.	1.ryy	.	1G	-lu-	1g	-lu-	1b	-lu-	1dd	-lu-
.	.	.	.	.	.	.	.	2c/	-i)a.	2g\	-i)a.	2cc\	-i)a.	2ee\	-ia
=58-	=58-	=58-	=58-	=58-	=58-	=58-	=58-	=58-	=58-	=58-	=58-	=58-	=58-	=58-	=58-
*M2/2	*	*M2/2	*	*M2/2	*	*M2/2	*	*M2/2	*	*M2/2	*	*M2/2	*	*M2/2	*
*met(C|)	*	*met(C|)	*	*met(C|)	*	*met(C|)	*	*met(C|)	*	*met(C|)	*	*met(C|)	*	*met(C|)	*
2g\	Al-	2g\	Al-	2b\	Al-	1b	Al-	2G/	Al-	2g\	Al-	2b\	Al-	2gg\	Al-
2g\	-l(e-	2g\	-l(e-	2dd\	-l(e-	.	.	2G/	-l(e-	2g\	-l(e-	2b\	-le-	4ee\	-le-
.	.	.	.	.	.	.	.	.	.	.	.	.	.	4ff\	.
!	!	!	!	!	!	!	!	!	!	!	!	!LO:SIC:v:t=custos cc	!	!	!
!	!	!	!	!	!	!	!	!	!	!	!	!LO:LB:g=original	!	!	!
=59-	=59-	=59-	=59-	=59-	=59-	=59-	=59-	=59-	=59-	=59-	=59-	=59-	=59-	=59-	=59-
0c	-lu-	0g	-lu-	0cc	-lu-	1a	-l(e-	0c	-lu-	0g	-lu-	0cc	-lu-	4gg\	.
.	.	.	.	.	.	.	.	.	.	.	.	.	.	4ff\	.
.	.	.	.	.	.	.	.	.	.	.	.	.	.	4ee\	.
.	.	.	.	.	.	.	.	.	.	.	.	.	.	4dd\	.
!	!	!	!	!	!	!	!	!	!	!	!	!	!	!LO:SIC:v:t=custos ee	!
!	!	!	!	!	!	!	!	!	!	!	!	!	!	!LO:LB:g=original	!
=60-	=60-	=60-	=60-	=60-	=60-	=60-	=60-	=60-	=60-	=60-	=60-	=60-	=60-	=60-	=60-
.	.	.	.	.	.	1g	-lu-	.	.	.	.	.	.	2.ee\	-lu-
.	.	.	.	.	.	.	.	.	.	.	.	.	.	4ee\	-i-
=61-	=61-	=61-	=61-	=61-	=61-	=61-	=61-	=61-	=61-	=61-	=61-	=61-	=61-	=61-	=61-
0g;>	-i)a.	0g;>	-i)a.	0b;>	-i)a.	0g;>	-i)a	0G;>	-i)a.	0g;>	-i)a.	0b;>	-ia.	0dd;>	-a
=-	=-	=-	=-	=-	=-	=-	=-	=-	=-	=-	=-	=-	=-	=-	=-
*-	*-	*-	*-	*-	*-	*-	*-	*-	*-	*-	*-	*-	*-	*-	*-
!!!system-decoration: [(g1)][(g2)]
!!!ENC: Filip Voros
!!!END: 2021-10-15
!!!EED: Jędrzej Mróz
!!!ESR: 2021-10-22
!!!RDF**kern: > = above
!!!RDF**kern: < = below
